NotoEmoji/emoji_u1f4ff.svg

<svg enable-background="new 0 0 128 128" viewBox="0 0 128 128" xmlns="http://www.w3.org/2000/svg"><ellipse cx="101.21" cy="63.87" fill="#874d36" rx="6.14" ry="6.39" transform="matrix(.9997 -.0263 .0263 .9997 -1.6437 2.6822)"/><ellipse cx="100.63" cy="63.18" fill="#d1593f" rx="5.24" ry="5.45" transform="matrix(.9997 -.0263 .0263 .9997 -1.6257 2.6666)"/><path d="m101.06 60.5c.42 1.56-1.14 2.85-2.44 2.71-1.18-.13-2.28-1.41-1.45-2.96 1.09-2.01 3.49-1.23 3.89.25z" fill="#ff7759"/><ellipse cx="110.83" cy="56.63" fill="#874d36" rx="6.08" ry="6.33" transform="matrix(.9987 -.0509 .0509 .9987 -2.7377 5.7119)"/><ellipse cx="110.13" cy="56.03" fill="#d1593f" rx="5.19" ry="5.41" transform="matrix(.9987 -.0509 .0509 .9987 -2.7078 5.6756)"/><path d="m110.11 53.12c.78 1.33-.47 2.97-1.8 3.2-1.2.2-2.6-.69-2.13-2.35.61-2.18 3.18-2.12 3.93-.85z" fill="#ff7759"/><ellipse cx="118.01" cy="34.86" fill="#874d36" rx="5.99" ry="6.24"/><ellipse cx="117.19" cy="34.5" fill="#d1593f" rx="5.11" ry="5.32"/><path d="m117.29 32.43c.46 1.55-1.08 2.88-2.38 2.77-1.18-.1-2.31-1.36-1.51-2.92 1.03-2.05 3.45-1.32 3.89.15z" fill="#ff7759"/><ellipse cx="112.86" cy="24.02" fill="#874d36" rx="5.95" ry="6.2"/><ellipse cx="112.3" cy="23.48" fill="#d1593f" rx="5.08" ry="5.29"/><path d="m112.33 21.78c.56 1.6-.86 3.05-2.15 2.99-1.17-.06-2.37-1.32-1.69-2.99.88-2.17 3.31-1.51 3.84 0z" fill="#ff7759"/><ellipse cx="103.47" cy="16.53" fill="#874d36" rx="5.92" ry="6.17"/><ellipse cx="102.95" cy="16.03" fill="#d1593f" rx="5.05" ry="5.26"/><path d="m102.72 13.94c.72 1.5-.57 3.09-1.88 3.19-1.19.08-2.53-1.01-2.01-2.73.68-2.23 3.21-1.88 3.89-.46z" fill="#ff7759"/><ellipse cx="92.61" cy="12.34" fill="#874d36" rx="5.89" ry="6.14"/><ellipse cx="92.12" cy="11.78" fill="#d1593f" rx="5.03" ry="5.24"/><path d="m92.08 9.96c.28 1.59-.82 2.77-2.38 2.77-1.27 0-2.29-1.76-1.33-3.23 1.16-1.79 3.41-1.23 3.71.46z" fill="#ff7759"/><ellipse cx="80.99" cy="10.78" fill="#874d36" rx="5.87" ry="6.12"/><ellipse cx="80.17" cy="10.17" fill="#d1593f" rx="5.01" ry="5.22"/><path d="m80.3 8.44c.47 1.61-1.05 2.98-2.35 2.85-1.18-.12-2.31-1.43-1.53-3.04 1.02-2.1 3.44-1.33 3.88.19z" fill="#ff7759"/><ellipse cx="69.29" cy="10.75" fill="#874d36" rx="5.86" ry="6.1"/><ellipse cx="68.85" cy="10.05" fill="#d1593f" rx="5" ry="5.21"/><path d="m68.66 8.08c.68 1.46-.64 3.01-1.94 3.09-1.19.07-2.49-1-1.93-2.66.72-2.17 3.23-1.82 3.87-.43z" fill="#ff7759"/><ellipse cx="58" cy="12.21" fill="#874d36" rx="5.85" ry="6.09"/><ellipse cx="57.26" cy="11.65" fill="#d1593f" rx="4.99" ry="5.2"/><path d="m57.48 9.69c.46 1.55-1.08 2.88-2.38 2.77-1.18-.1-2.31-1.36-1.51-2.92 1.04-2.05 3.46-1.32 3.89.15z" fill="#ff7759"/><ellipse cx="46.91" cy="14.49" fill="#874d36" rx="5.85" ry="6.09"/><ellipse cx="46.48" cy="13.65" fill="#d1593f" rx="4.99" ry="5.2"/><path d="m42.54 13.31c-.36-1.75 1.38-2.82 2.6-2.72 1.12.09 2.16 1.55 1.17 3.08-1.36 2.09-3.46 1.17-3.77-.36z" fill="#ff7759"/><ellipse cx="36.38" cy="19.27" fill="#874d36" rx="5.85" ry="6.09"/><ellipse cx="35.83" cy="18.48" fill="#d1593f" rx="4.99" ry="5.2"/><path d="m36.37 16.83c.08 1.67-1.58 2.73-2.87 2.37-1.12-.31-2.1-1.79-1.03-3.21 1.33-1.77 3.83-.74 3.9.84z" fill="#ff7759"/><ellipse cx="26.97" cy="26.42" fill="#874d36" rx="5.86" ry="6.1"/><ellipse cx="26.52" cy="25.79" fill="#d1593f" rx="5" ry="5.21"/><path d="m28.04 23.12c.26 1.66-1.74 2.54-3.08 2.37-1.24-.15-2.27-1.58-1.05-2.95 1.65-1.86 3.9-.87 4.13.58z" fill="#ff7759"/><ellipse cx="19.35" cy="35.56" fill="#874d36" rx="5.87" ry="6.12" transform="matrix(.9586 -.2848 .2848 .9586 -9.3256 6.9832)"/><ellipse cx="18.87" cy="34.76" fill="#d1593f" rx="5.01" ry="5.22" transform="matrix(.9586 -.2848 .2848 .9586 -9.1192 6.8151)"/><path d="m20.16 32.37c.08.89-.45 1.77-1.17 2.26-.7.48-1.62.58-2.42.33-.58-.19-1.86-1.48-.78-3.1 1.07-1.63 4.15-1.93 4.37.51z" fill="#ff7759"/><ellipse cx="13.82" cy="46.15" fill="#874d36" rx="5.89" ry="6.14" transform="matrix(.9608 -.2773 .2773 .9608 -12.2545 5.6425)"/><ellipse cx="13.37" cy="45.34" fill="#d1593f" rx="5.03" ry="5.24" transform="matrix(.9608 -.2773 .2773 .9608 -12.0484 5.4867)"/><path d="m15.17 43.56c-.2.87-.98 1.54-1.82 1.78-.81.23-1.72.05-2.4-.44-.5-.36-1.31-1.98.22-3.19s4.55-.54 4 1.85z" fill="#ff7759"/><ellipse cx="10.56" cy="57.7" fill="#874d36" rx="5.92" ry="6.17" transform="matrix(.9849 -.1732 .1732 .9849 -9.8336 2.7018)"/><ellipse cx="10.18" cy="56.92" fill="#d1593f" rx="5.05" ry="5.26" transform="matrix(.9849 -.1732 .1732 .9849 -9.704 2.624)"/><path d="m12.47 55.13c-.37.81-1.27 1.31-2.14 1.38-.84.06-1.69-.3-2.26-.92-.41-.45-.88-2.21.86-3.08s4.56.39 3.54 2.62z" fill="#ff7759"/><ellipse cx="9.95" cy="70.1" fill="#874d36" rx="5.95" ry="6.2"/><ellipse cx="9.88" cy="69.1" fill="#d1593f" rx="5.08" ry="5.29"/><path d="m12.2 67.4c-.27.86-1.09 1.46-1.95 1.63-.83.16-1.72-.1-2.37-.64-.49-.41-1.13-2.16.53-3.32 1.56-1.11 4.54-.09 3.79 2.33z" fill="#ff7759"/><ellipse cx="12.39" cy="81.97" fill="#874d36" rx="5.99" ry="6.24"/><ellipse cx="12.53" cy="81.01" fill="#d1593f" rx="5.11" ry="5.32"/><path d="m14.44 78.62c-.29 1.41-1.4 1.71-2.26 1.91-2.1.49-3.97-1.31-2.1-3.13 1.13-1.11 4.89-1.36 4.36 1.22z" fill="#ff7759"/><ellipse cx="18.32" cy="91.72" fill="#874d36" rx="6.03" ry="6.28"/><ellipse cx="18.39" cy="90.8" fill="#d1593f" rx="5.15" ry="5.36"/><path d="m20.8 88.6c-.08.9-.83 1.72-1.69 1.9-1.46.31-4.2-.32-2.53-3.15.96-1.64 4.48-1.67 4.22 1.25z" fill="#ff7759"/><ellipse cx="28.28" cy="98.84" fill="#874d36" rx="6.08" ry="6.33"/><ellipse cx="28.11" cy="97.87" fill="#d1593f" rx="5.19" ry="5.41"/><path d="m29.93 95.63c-.13.89-.86 1.58-1.68 1.91-1.21.49-4.26.03-2.74-3.1.81-1.67 4.82-1.58 4.42 1.19z" fill="#ff7759"/><ellipse cx="39.61" cy="101.12" fill="#874d36" rx="6.14" ry="6.39"/><ellipse cx="39.5" cy="100.13" fill="#d1593f" rx="5.24" ry="5.45"/><path d="m41.47 97.55c-.12.89-.58 1.34-1.66 1.92-1.64.89-4.33-.63-2.93-3.08.96-1.67 4.97-1.69 4.59 1.16z" fill="#ff7759"/><ellipse cx="51.06" cy="98.89" fill="#874d36" rx="6.19" ry="6.45"/><ellipse cx="50.76" cy="97.92" fill="#d1593f" rx="5.29" ry="5.51"/><path d="m53.13 95.85c-.11.9-.82 1.65-1.65 1.93-.82.28-1.75.13-2.5-.31-.64-.37-1.17-1.03-1.18-1.79 0-.41.28-.89.53-.9 1.05-1.95 5.17-1.89 4.8 1.07z" fill="#ff7759"/><ellipse cx="63.02" cy="95.73" fill="#874d36" rx="6.26" ry="6.52"/><ellipse cx="62.6" cy="94.96" fill="#d1593f" rx="5.34" ry="5.56"/><path d="m64.26 92.59c-.01.91-.62 1.74-1.41 2.11s-1.73.32-2.54-.02c-.7-.3-1.42-1.47-1.18-2.38.67-2.52 5.15-2.78 5.13.29z" fill="#ff7759"/><ellipse cx="74.83" cy="95.53" fill="#874d36" rx="6.33" ry="6.59"/><ellipse cx="74.45" cy="94.58" fill="#d1593f" rx="5.4" ry="5.63"/><path d="m76.5 92.39c-.15.9-.79 1.67-1.62 1.96s-1.83.41-2.81-.28c-.64-.45-1.28-1.58-.75-2.61 1.1-2.18 5.66-1.97 5.18.93z" fill="#ff7759"/><ellipse cx="87.06" cy="82.42" fill="#874d36" rx="6.26" ry="6.52"/><ellipse cx="86.41" cy="81.78" fill="#d1593f" rx="5.56" ry="5.34" transform="matrix(.3236 -.9462 .9462 .3236 -18.9348 137.0773)"/><path d="m86.71 80.38c-.36 1.77-2.31 2.37-3.36 1.65-.95-.66-1.29-2.45.14-3.64 1.87-1.55 3.56.32 3.22 1.99z" fill="#ff7759"/><ellipse cx="117.83" cy="46.79" fill="#874d36" rx="6.03" ry="6.28"/><ellipse cx="117.19" cy="46.5" fill="#d1593f" rx="5.15" ry="5.36"/><path d="m116.94 44.2c.46 1.55-.91 3.27-2.21 3.16-1.18-.1-2.31-1.36-1.51-2.92 1.04-2.04 3.28-1.71 3.72-.24z" fill="#ff7759"/><ellipse cx="86.64" cy="94.67" fill="#874d36" rx="6.33" ry="6.59"/><ellipse cx="86.06" cy="93.7" fill="#d1593f" rx="5.4" ry="5.63"/><path d="m86.97 90.73c.3.84.01 1.86-.61 2.51s-1.53.97-2.4.97c-.78 0-1.85-.62-1.79-2.15.08-2.46 3.75-4.27 4.8-1.33z" fill="#ff7759"/><path d="m82.48 97.94c.47.51 1.75.88 2.39.63 1.27-.5 1.23-1.67 3.18-2.84 1.25-.75 1.78-.58 2.82-1.06.75-.35.57-1.29.51-1.9 0 0 2.35 3.66-2.22 6.4-4.53 2.71-6.68-1.23-6.68-1.23z" fill="#874d36"/><ellipse cx="92.6" cy="71.76" fill="#874d36" rx="6.19" ry="6.45"/><ellipse cx="91.75" cy="71.3" fill="#d1593f" rx="5.29" ry="5.51"/><path d="m92.16 68.53c.26 1.59-1.07 2.76-2.38 2.77-1.29.01-2.51-1.48-1.51-2.92 1.39-2.02 3.65-1.37 3.89.15z" fill="#ff7759"/><path d="m91.19 95.91c-2.41-.26-4.56 1.98-4.79 4.29-.47 4.73 4.78 6.41 4.78 6.41.45.21 1.61.75 2.92 2.83 4.54 7.24 11.83 12.96 20.33 13.88 2.76.3 9.35-14.38 4.15-16.31-1.56-.58-3.29-.32-4.93-.11-3.02.39-6.09.6-9.1.13-2.23-.35-7.07-2.6-8.16-4.9 0-.01-.27-5.69-5.2-6.22z" fill="#ffca28"/><path d="m94.44 103.33c3.66 2.46 8.37 3.27 12.64 2.19 4.04-1.03 7.93-3.68 12.01-2.83" fill="none" stroke="#ffca28" stroke-linecap="round" stroke-miterlimit="10" stroke-width="2.5229"/><path d="m92.96 106.96c.21 4.56.86 9.29 4.5 12.05 3.35 2.55 7.88 3.34 11.98 1.33" fill="none" stroke="#ffca28" stroke-linecap="round" stroke-miterlimit="10" stroke-width="2.5229"/><g fill="#e2a610"><path d="m116.62 107.37c-1.55.87-1.07 5.34-1.15 6.28-.28 3.33-2.65 2.4-3.64 5.41-.52 1.57-.29 4.04 1.58 4.24 6.42.69 7.55-6.32 7.71-7.92.67-6.44-2.09-9.36-4.5-8.01z"/><path d="m115.59 114.36c-6.91 0-13.86-2.26-18.62-7.04-1.94-1.95-.79-2.57-.28-2.11 5.55 4.98 13.68 7.69 21.31 6.98l.19 2.05c-.85.09-1.72.12-2.6.12z"/><path d="m115.71 120.34c-5.01-.82-10.92-3.41-13.84-5.81-1.83-1.5-2.16-2.45-2.16-2.45 4.21 3.42 10.82 5.66 16.17 6.53z"/><path d="m91.83 106.96s.47-1.22 2.11-2.55c1.95-1.59 2.87-1.63 2.87-1.63-.29-.45-.4-2.12-1.12-3.46 0 0 .2 2.08-2.58 4.07-1.82 1.3-5.06 1.28-5.06 1.28 1.37 1.42 3.78 2.29 3.78 2.29z"/></g></svg>

<?xml version="1.0" encoding="utf-8"?>
<!-- Generator: Adobe Illustrator 25.2.3, SVG Export Plug-In . SVG Version: 6.00 Build 0)  -->
<svg version="1.1" id="Layer_1" xmlns="http://www.w3.org/2000/svg" xmlns:xlink="http://www.w3.org/1999/xlink" x="0px" y="0px"
	 viewBox="0 0 128 128" style="enable-background:new 0 0 128 128;" xml:space="preserve">
<g>
	<g>
		<g>
			
				<ellipse transform="matrix(0.9997 -0.0263 0.0263 0.9997 -1.6437 2.6822)" style="fill:#874D36;" cx="101.21" cy="63.87" rx="6.14" ry="6.39"/>
			
				<ellipse transform="matrix(0.9997 -0.0263 0.0263 0.9997 -1.6257 2.6666)" style="fill:#D1593F;" cx="100.63" cy="63.18" rx="5.24" ry="5.45"/>
			<path style="fill:#FF7759;" d="M101.06,60.5c0.42,1.56-1.14,2.85-2.44,2.71c-1.18-0.13-2.28-1.41-1.45-2.96
				C98.26,58.24,100.66,59.02,101.06,60.5z"/>
		</g>
		<g>
			
				<ellipse transform="matrix(0.9987 -0.0509 0.0509 0.9987 -2.7377 5.7119)" style="fill:#874D36;" cx="110.83" cy="56.63" rx="6.08" ry="6.33"/>
			
				<ellipse transform="matrix(0.9987 -0.0509 0.0509 0.9987 -2.7078 5.6756)" style="fill:#D1593F;" cx="110.13" cy="56.03" rx="5.19" ry="5.41"/>
			<path style="fill:#FF7759;" d="M110.11,53.12c0.78,1.33-0.47,2.97-1.8,3.2c-1.2,0.2-2.6-0.69-2.13-2.35
				C106.79,51.79,109.36,51.85,110.11,53.12z"/>
		</g>
		<g>
			<ellipse style="fill:#874D36;" cx="118.01" cy="34.86" rx="5.99" ry="6.24"/>
			<ellipse style="fill:#D1593F;" cx="117.19" cy="34.5" rx="5.11" ry="5.32"/>
			<path style="fill:#FF7759;" d="M117.29,32.43c0.46,1.55-1.08,2.88-2.38,2.77c-1.18-0.1-2.31-1.36-1.51-2.92
				C114.43,30.23,116.85,30.96,117.29,32.43z"/>
		</g>
		<g>
			<ellipse style="fill:#874D36;" cx="112.86" cy="24.02" rx="5.95" ry="6.2"/>
			<ellipse style="fill:#D1593F;" cx="112.3" cy="23.48" rx="5.08" ry="5.29"/>
			<path style="fill:#FF7759;" d="M112.33,21.78c0.56,1.6-0.86,3.05-2.15,2.99c-1.17-0.06-2.37-1.32-1.69-2.99
				C109.37,19.61,111.8,20.27,112.33,21.78z"/>
		</g>
		<g>
			<ellipse style="fill:#874D36;" cx="103.47" cy="16.53" rx="5.92" ry="6.17"/>
			<ellipse style="fill:#D1593F;" cx="102.95" cy="16.03" rx="5.05" ry="5.26"/>
			<path style="fill:#FF7759;" d="M102.72,13.94c0.72,1.5-0.57,3.09-1.88,3.19c-1.19,0.08-2.53-1.01-2.01-2.73
				C99.51,12.17,102.04,12.52,102.72,13.94z"/>
		</g>
		<g>
			<ellipse style="fill:#874D36;" cx="92.61" cy="12.34" rx="5.89" ry="6.14"/>
			<ellipse style="fill:#D1593F;" cx="92.12" cy="11.78" rx="5.03" ry="5.24"/>
			<path style="fill:#FF7759;" d="M92.08,9.96c0.28,1.59-0.82,2.77-2.38,2.77c-1.27,0-2.29-1.76-1.33-3.23
				C89.53,7.71,91.78,8.27,92.08,9.96z"/>
		</g>
		<g>
			<ellipse style="fill:#874D36;" cx="80.99" cy="10.78" rx="5.87" ry="6.12"/>
			<ellipse style="fill:#D1593F;" cx="80.17" cy="10.17" rx="5.01" ry="5.22"/>
			<path style="fill:#FF7759;" d="M80.3,8.44c0.47,1.61-1.05,2.98-2.35,2.85c-1.18-0.12-2.31-1.43-1.53-3.04
				C77.44,6.15,79.86,6.92,80.3,8.44z"/>
		</g>
		<g>
			<ellipse style="fill:#874D36;" cx="69.29" cy="10.75" rx="5.86" ry="6.1"/>
			<ellipse style="fill:#D1593F;" cx="68.85" cy="10.05" rx="5" ry="5.21"/>
			<path style="fill:#FF7759;" d="M68.66,8.08c0.68,1.46-0.64,3.01-1.94,3.09c-1.19,0.07-2.49-1-1.93-2.66
				C65.51,6.34,68.02,6.69,68.66,8.08z"/>
		</g>
		<g>
			<ellipse style="fill:#874D36;" cx="58" cy="12.21" rx="5.85" ry="6.09"/>
			<ellipse style="fill:#D1593F;" cx="57.26" cy="11.65" rx="4.99" ry="5.2"/>
			<path style="fill:#FF7759;" d="M57.48,9.69c0.46,1.55-1.08,2.88-2.38,2.77c-1.18-0.1-2.31-1.36-1.51-2.92
				C54.63,7.49,57.05,8.22,57.48,9.69z"/>
		</g>
		<g>
			<ellipse style="fill:#874D36;" cx="46.91" cy="14.49" rx="5.85" ry="6.09"/>
			<ellipse style="fill:#D1593F;" cx="46.48" cy="13.65" rx="4.99" ry="5.2"/>
			<path style="fill:#FF7759;" d="M42.54,13.31c-0.36-1.75,1.38-2.82,2.6-2.72c1.12,0.09,2.16,1.55,1.17,3.08
				C44.95,15.76,42.85,14.84,42.54,13.31z"/>
		</g>
		<g>
			<ellipse style="fill:#874D36;" cx="36.38" cy="19.27" rx="5.85" ry="6.09"/>
			<ellipse style="fill:#D1593F;" cx="35.83" cy="18.48" rx="4.99" ry="5.2"/>
			<path style="fill:#FF7759;" d="M36.37,16.83c0.08,1.67-1.58,2.73-2.87,2.37c-1.12-0.31-2.1-1.79-1.03-3.21
				C33.8,14.22,36.3,15.25,36.37,16.83z"/>
		</g>
		<g>
			<ellipse style="fill:#874D36;" cx="26.97" cy="26.42" rx="5.86" ry="6.1"/>
			<ellipse style="fill:#D1593F;" cx="26.52" cy="25.79" rx="5" ry="5.21"/>
			<path style="fill:#FF7759;" d="M28.04,23.12c0.26,1.66-1.74,2.54-3.08,2.37c-1.24-0.15-2.27-1.58-1.05-2.95
				C25.56,20.68,27.81,21.67,28.04,23.12z"/>
		</g>
		<g>
			
				<ellipse transform="matrix(0.9586 -0.2848 0.2848 0.9586 -9.3256 6.9832)" style="fill:#874D36;" cx="19.35" cy="35.56" rx="5.87" ry="6.12"/>
			
				<ellipse transform="matrix(0.9586 -0.2848 0.2848 0.9586 -9.1192 6.8151)" style="fill:#D1593F;" cx="18.87" cy="34.76" rx="5.01" ry="5.22"/>
			<path style="fill:#FF7759;" d="M20.16,32.37c0.08,0.89-0.45,1.77-1.17,2.26c-0.7,0.48-1.62,0.58-2.42,0.33
				c-0.58-0.19-1.86-1.48-0.78-3.1C16.86,30.23,19.94,29.93,20.16,32.37z"/>
		</g>
		<g>
			
				<ellipse transform="matrix(0.9608 -0.2773 0.2773 0.9608 -12.2545 5.6425)" style="fill:#874D36;" cx="13.82" cy="46.15" rx="5.89" ry="6.14"/>
			
				<ellipse transform="matrix(0.9608 -0.2773 0.2773 0.9608 -12.0484 5.4867)" style="fill:#D1593F;" cx="13.37" cy="45.34" rx="5.03" ry="5.24"/>
			<path style="fill:#FF7759;" d="M15.17,43.56c-0.2,0.87-0.98,1.54-1.82,1.78c-0.81,0.23-1.72,0.05-2.4-0.44
				c-0.5-0.36-1.31-1.98,0.22-3.19C12.7,40.5,15.72,41.17,15.17,43.56z"/>
		</g>
		<g>
			
				<ellipse transform="matrix(0.9849 -0.1732 0.1732 0.9849 -9.8336 2.7018)" style="fill:#874D36;" cx="10.56" cy="57.7" rx="5.92" ry="6.17"/>
			
				<ellipse transform="matrix(0.9849 -0.1732 0.1732 0.9849 -9.704 2.624)" style="fill:#D1593F;" cx="10.18" cy="56.92" rx="5.05" ry="5.26"/>
			<path style="fill:#FF7759;" d="M12.47,55.13c-0.37,0.81-1.27,1.31-2.14,1.38c-0.84,0.06-1.69-0.3-2.26-0.92
				c-0.41-0.45-0.88-2.21,0.86-3.08S13.49,52.9,12.47,55.13z"/>
		</g>
		<g>
			<ellipse style="fill:#874D36;" cx="9.95" cy="70.1" rx="5.95" ry="6.2"/>
			<ellipse style="fill:#D1593F;" cx="9.88" cy="69.1" rx="5.08" ry="5.29"/>
			<path style="fill:#FF7759;" d="M12.2,67.4c-0.27,0.86-1.09,1.46-1.95,1.63c-0.83,0.16-1.72-0.1-2.37-0.64
				c-0.49-0.41-1.13-2.16,0.53-3.32C9.97,63.96,12.95,64.98,12.2,67.4z"/>
		</g>
		<g>
			<ellipse style="fill:#874D36;" cx="12.39" cy="81.97" rx="5.99" ry="6.24"/>
			<ellipse style="fill:#D1593F;" cx="12.53" cy="81.01" rx="5.11" ry="5.32"/>
			<path style="fill:#FF7759;" d="M14.44,78.62c-0.29,1.41-1.4,1.71-2.26,1.91c-2.1,0.49-3.97-1.31-2.1-3.13
				C11.21,76.29,14.97,76.04,14.44,78.62z"/>
		</g>
		<g>
			<ellipse style="fill:#874D36;" cx="18.32" cy="91.72" rx="6.03" ry="6.28"/>
			<ellipse style="fill:#D1593F;" cx="18.39" cy="90.8" rx="5.15" ry="5.36"/>
			<path style="fill:#FF7759;" d="M20.8,88.6c-0.08,0.9-0.83,1.72-1.69,1.9c-1.46,0.31-4.2-0.32-2.53-3.15
				C17.54,85.71,21.06,85.68,20.8,88.6z"/>
		</g>
		<g>
			<ellipse style="fill:#874D36;" cx="28.28" cy="98.84" rx="6.08" ry="6.33"/>
			<ellipse style="fill:#D1593F;" cx="28.11" cy="97.87" rx="5.19" ry="5.41"/>
			<path style="fill:#FF7759;" d="M29.93,95.63c-0.13,0.89-0.86,1.58-1.68,1.91c-1.21,0.49-4.26,0.03-2.74-3.1
				C26.32,92.77,30.33,92.86,29.93,95.63z"/>
		</g>
		<g>
			<ellipse style="fill:#874D36;" cx="39.61" cy="101.12" rx="6.14" ry="6.39"/>
			<ellipse style="fill:#D1593F;" cx="39.5" cy="100.13" rx="5.24" ry="5.45"/>
			<path style="fill:#FF7759;" d="M41.47,97.55c-0.12,0.89-0.58,1.34-1.66,1.92c-1.64,0.89-4.33-0.63-2.93-3.08
				C37.84,94.72,41.85,94.7,41.47,97.55z"/>
		</g>
		<g>
			<ellipse style="fill:#874D36;" cx="51.06" cy="98.89" rx="6.19" ry="6.45"/>
			<ellipse style="fill:#D1593F;" cx="50.76" cy="97.92" rx="5.29" ry="5.51"/>
			<path style="fill:#FF7759;" d="M53.13,95.85c-0.11,0.9-0.82,1.65-1.65,1.93c-0.82,0.28-1.75,0.13-2.5-0.31
				c-0.64-0.37-1.17-1.03-1.18-1.79c0-0.41,0.28-0.89,0.53-0.9C49.38,92.83,53.5,92.89,53.13,95.85z"/>
		</g>
		<g>
			<ellipse style="fill:#874D36;" cx="63.02" cy="95.73" rx="6.26" ry="6.52"/>
			<ellipse style="fill:#D1593F;" cx="62.6" cy="94.96" rx="5.34" ry="5.56"/>
			<path style="fill:#FF7759;" d="M64.26,92.59c-0.01,0.91-0.62,1.74-1.41,2.11c-0.79,0.37-1.73,0.32-2.54-0.02
				c-0.7-0.3-1.42-1.47-1.18-2.38C59.8,89.78,64.28,89.52,64.26,92.59z"/>
		</g>
		<g>
			<ellipse style="fill:#874D36;" cx="74.83" cy="95.53" rx="6.33" ry="6.59"/>
			<ellipse style="fill:#D1593F;" cx="74.45" cy="94.58" rx="5.4" ry="5.63"/>
			<path style="fill:#FF7759;" d="M76.5,92.39c-0.15,0.9-0.79,1.67-1.62,1.96s-1.83,0.41-2.81-0.28c-0.64-0.45-1.28-1.58-0.75-2.61
				C72.42,89.28,76.98,89.49,76.5,92.39z"/>
		</g>
		<g>
			<ellipse style="fill:#874D36;" cx="87.06" cy="82.42" rx="6.26" ry="6.52"/>
			
				<ellipse transform="matrix(0.3236 -0.9462 0.9462 0.3236 -18.9348 137.0773)" style="fill:#D1593F;" cx="86.41" cy="81.78" rx="5.56" ry="5.34"/>
			<path style="fill:#FF7759;" d="M86.71,80.38c-0.36,1.77-2.31,2.37-3.36,1.65c-0.95-0.66-1.29-2.45,0.14-3.64
				C85.36,76.84,87.05,78.71,86.71,80.38z"/>
		</g>
		<g>
			<ellipse style="fill:#874D36;" cx="117.83" cy="46.79" rx="6.03" ry="6.28"/>
			<ellipse style="fill:#D1593F;" cx="117.19" cy="46.5" rx="5.15" ry="5.36"/>
			<path style="fill:#FF7759;" d="M116.94,44.2c0.46,1.55-0.91,3.27-2.21,3.16c-1.18-0.1-2.31-1.36-1.51-2.92
				C114.26,42.4,116.5,42.73,116.94,44.2z"/>
		</g>
		<g>
			<ellipse style="fill:#874D36;" cx="86.64" cy="94.67" rx="6.33" ry="6.59"/>
			<ellipse style="fill:#D1593F;" cx="86.06" cy="93.7" rx="5.4" ry="5.63"/>
			<path style="fill:#FF7759;" d="M86.97,90.73c0.3,0.84,0.01,1.86-0.61,2.51c-0.62,0.65-1.53,0.97-2.4,0.97
				c-0.78,0-1.85-0.62-1.79-2.15C82.25,89.6,85.92,87.79,86.97,90.73z"/>
			<path style="fill:#874D36;" d="M82.48,97.94c0.47,0.51,1.75,0.88,2.39,0.63c1.27-0.5,1.23-1.67,3.18-2.84
				c1.25-0.75,1.78-0.58,2.82-1.06c0.75-0.35,0.57-1.29,0.51-1.9c0,0,2.35,3.66-2.22,6.4C84.63,101.88,82.48,97.94,82.48,97.94z"/>
		</g>
		<g>
			<ellipse style="fill:#874D36;" cx="92.6" cy="71.76" rx="6.19" ry="6.45"/>
			<ellipse style="fill:#D1593F;" cx="91.75" cy="71.3" rx="5.29" ry="5.51"/>
			<path style="fill:#FF7759;" d="M92.16,68.53c0.26,1.59-1.07,2.76-2.38,2.77c-1.29,0.01-2.51-1.48-1.51-2.92
				C89.66,66.36,91.92,67.01,92.16,68.53z"/>
		</g>
	</g>
	<path style="fill:#FFCA28;" d="M91.19,95.91c-2.41-0.26-4.56,1.98-4.79,4.29c-0.47,4.73,4.78,6.41,4.78,6.41
		c0.45,0.21,1.61,0.75,2.92,2.83c4.54,7.24,11.83,12.96,20.33,13.88c2.76,0.3,9.35-14.38,4.15-16.31c-1.56-0.58-3.29-0.32-4.93-0.11
		c-3.02,0.39-6.09,0.6-9.1,0.13c-2.23-0.35-7.07-2.6-8.16-4.9C96.39,102.12,96.12,96.44,91.19,95.91z"/>
	<path style="fill:none;stroke:#FFCA28;stroke-width:2.5229;stroke-linecap:round;stroke-miterlimit:10;" d="M94.44,103.33
		c3.66,2.46,8.37,3.27,12.64,2.19c4.04-1.03,7.93-3.68,12.01-2.83"/>
	<path style="fill:none;stroke:#FFCA28;stroke-width:2.5229;stroke-linecap:round;stroke-miterlimit:10;" d="M92.96,106.96
		c0.21,4.56,0.86,9.29,4.5,12.05c3.35,2.55,7.88,3.34,11.98,1.33"/>
	<path style="fill:#E2A610;" d="M116.62,107.37c-1.55,0.87-1.07,5.34-1.15,6.28c-0.28,3.33-2.65,2.4-3.64,5.41
		c-0.52,1.57-0.29,4.04,1.58,4.24c6.42,0.69,7.55-6.32,7.71-7.92C121.79,108.94,119.03,106.02,116.62,107.37z"/>
	<g>
		<path style="fill:#E2A610;" d="M115.59,114.36c-6.91,0-13.86-2.26-18.62-7.04c-1.94-1.95-0.79-2.57-0.28-2.11
			c5.55,4.98,13.68,7.69,21.31,6.98l0.19,2.05C117.34,114.33,116.47,114.36,115.59,114.36z"/>
	</g>
	<g>
		<path style="fill:#E2A610;" d="M115.71,120.34c-5.01-0.82-10.92-3.41-13.84-5.81c-1.83-1.5-2.16-2.45-2.16-2.45
			c4.21,3.42,10.82,5.66,16.17,6.53L115.71,120.34z"/>
	</g>
	<path style="fill:#E2A610;" d="M91.83,106.96c0,0,0.47-1.22,2.11-2.55c1.95-1.59,2.87-1.63,2.87-1.63
		c-0.29-0.45-0.4-2.12-1.12-3.46c0,0,0.2,2.08-2.58,4.07c-1.82,1.3-5.06,1.28-5.06,1.28C89.42,106.09,91.83,106.96,91.83,106.96z"/>
</g>
</svg>
